cssgg/read.svg

<svg
  width="24"
  height="24"
  viewBox="0 0 24 24"
  fill="none"
  xmlns="http://www.w3.org/2000/svg"
>
  <path
    fill-rule="evenodd"
    clip-rule="evenodd"
    d="M7 14C8.10457 14 9 13.1046 9 12C9 10.8954 8.10457 10 7 10C5.89543 10 5 10.8954 5 12C5 13.1046 5.89543 14 7 14ZM10.4649 10C9.77325 8.8044 8.48056 8 7 8C5.13616 8 3.57006 9.27477 3.12602 11H2C1.44772 11 1 11.4477 1 12C1 12.5523 1.44772 13 2 13H3.12602C3.57006 14.7252 5.13616 16 7 16C9.20914 16 11 14.2091 11 12H13C13 14.2091 14.7909 16 17 16C18.8638 16 20.4299 14.7252 20.874 13H22C22.5523 13 23 12.5523 23 12C23 11.4477 22.5523 11 22 11H20.874C20.4299 9.27477 18.8638 8 17 8C15.5194 8 14.2267 8.8044 13.5351 10H10.4649ZM15 12C15 13.1046 15.8954 14 17 14C18.1046 14 19 13.1046 19 12C19 10.8954 18.1046 10 17 10C15.8954 10 15 10.8954 15 12Z"
    fill="currentColor"
  />
</svg>

<svg viewBox="0 0 24 24" xmlns="http://www.w3.org/2000/svg"><path fill-rule="evenodd" d="M7 14c1.1 0 2-.9 2-2 0-1.11-.9-2-2-2 -1.11 0-2 .89-2 2 0 1.1.89 2 2 2Zm3.46-4c-.7-1.2-1.99-2-3.47-2 -1.87 0-3.43 1.27-3.88 3H1.98c-.56 0-1 .44-1 1 0 .55.44 1 1 1H3.1c.44 1.72 2.01 3 3.87 3 2.2 0 4-1.8 4-4h2c0 2.2 1.79 4 4 4 1.86 0 3.42-1.28 3.87-3h1.12c.55 0 1-.45 1-1 0-.56-.45-1-1-1h-1.13c-.45-1.73-2.02-3-3.88-3 -1.49 0-2.78.8-3.47 2H10.4Zm4.53 2c0 1.1.89 2 2 2 1.1 0 2-.9 2-2 0-1.11-.9-2-2-2 -1.11 0-2 .89-2 2Z"/></svg>
